X: 34372
T: Revolution, The
R: hornpipe
M: 4/4
K: Gmajor
dc|BGDB, CEAc|fecA E2E^D|DFAd agfe|(3dcd (3edc dedc|
(3Bdc (3BAG (3ced (3cBA|(3fga (3def (3gdB (3GDB,|CEAc (3BAG (3AGF|(3GBc (3def g2:|
Bc|dgbd cfaf|d^ced BGDB,|CEAc B,DGB|AEcB (3ABG (3FGE|
DGBd EAce|dbag egfe|d^ced =cAEF|AG{A}GF G2:|

